X:1
T:The Sound of Silence
C:zhiming@vmiis.com
M:2/4
L:1/8
Q:1/4=80
K:C
V:1
zzAA|ccee|d4-|d4|
zzGG|BBdd|c4-|c4|
zzcc|eegg|a2ag-|g4|
zzcc|eegg|a2ag-|g4|
zzcc|aa3-|a2ab|c'c'-c'2|
ba3|g4-|g2ag|e4-|
e4|zzcc|g4-|g2zB|cA3-|A4|